@extra/phlat-icons/symbolic-22/package-reinstall.svg

<?xml version="1.0" encoding="UTF-8" standalone="no"?>
<svg
   xmlns:dc="http://purl.org/dc/elements/1.1/"
   xmlns:cc="http://creativecommons.org/ns#"
   xmlns:rdf="http://www.w3.org/1999/02/22-rdf-syntax-ns#"
   xmlns:svg="http://www.w3.org/2000/svg"
   xmlns="http://www.w3.org/2000/svg"
   xmlns:sodipodi="http://sodipodi.sourceforge.net/DTD/sodipodi-0.dtd"
   xmlns:inkscape="http://www.inkscape.org/namespaces/inkscape"
   version="1.1"
   viewBox="-3 -3 22 22"
   id="svg8"
   sodipodi:docname="package-reinstall.svg"
   inkscape:version="0.92.1 r15371">
  <metadata
     id="metadata14">
    <rdf:RDF>
      <cc:Work
         rdf:about="">
        <dc:format>image/svg+xml</dc:format>
        <dc:type
           rdf:resource="http://purl.org/dc/dcmitype/StillImage" />
        <dc:title></dc:title>
      </cc:Work>
    </rdf:RDF>
  </metadata>
  <defs
     id="defs12" />
  <sodipodi:namedview
     pagecolor="#ffffff"
     bordercolor="#666666"
     borderopacity="1"
     objecttolerance="10"
     gridtolerance="10"
     guidetolerance="10"
     inkscape:pageopacity="0"
     inkscape:pageshadow="2"
     inkscape:window-width="886"
     inkscape:window-height="689"
     id="namedview10"
     showgrid="true"
     inkscape:zoom="14.75"
     inkscape:cx="8"
     inkscape:cy="7.4576271"
     inkscape:window-x="0"
     inkscape:window-y="24"
     inkscape:window-maximized="0"
     inkscape:current-layer="svg8">
    <inkscape:grid
       type="xygrid"
       id="grid112" />
  </sodipodi:namedview>
  <path
     style="font-weight:400;font-family:Sans;text-indent:0;text-decoration:none;text-decoration-line:none;text-transform:none;overflow:visible;fill:#f1f2f2"
     d="M 3.46875 1 A 2.468 2.468 0 0 0 0.99804688 3.46875 L 0.99804688 12.53125 A 2.468 2.468 0 0 0 3.4707031 15 L 10 15 L 10 14 L 3.4707031 14 A 1.443 1.443 0 0 1 2 12.53125 L 2 3.4707031 C 2 2.6383687 2.6367288 2.0010168 3.46875 2 L 3.4707031 2 L 12.53125 2 C 13.217824 2 13.764883 2.4374641 13.9375 3.0566406 L 8.5 8.375 L 6.5625 6.4375 L 4.4375 8.5625 L 7.4375 11.5625 L 8.5 12.625 L 9.5625 11.5625 L 10 11.113281 L 10 10 L 11.083984 10 L 14 7.0039062 L 14 10 L 15 10 L 15 3.4707031 A 2.468 2.468 0 0 0 12.529297 1 L 3.46875 1 z "
     id="path2" />
  <path
     inkscape:connector-curvature="0"
     style="fill:#669900"
     d="m 11,14 2,-3 h 1 l 2,3 h -2 v 2 h -1 v -2 z"
     id="path6" />
</svg>

<svg xmlns="http://www.w3.org/2000/svg" viewBox="-3 -3 22 22">
    <path style="text-indent:0;text-decoration-line:none;text-transform:none" d="M3.469 1A2.468 2.468 0 0 0 .998 3.469v9.062A2.468 2.468 0 0 0 3.471 15H10v-1H3.47A1.443 1.443 0 0 1 2 12.531v-9.06C2 2.638 2.637 2 3.469 2H12.53c.687 0 1.234.437 1.406 1.057L8.5 8.375 6.562 6.437 4.438 8.563l3 3L8.5 12.626l1.063-1.063.437-.449V10h1.084L14 7.004V10h1V3.47A2.468 2.468 0 0 0 12.53 1H3.468z" font-weight="400" font-family="Sans" overflow="visible" fill="#f1f2f2"/>
    <path d="M11 14l2-3h1l2 3h-2v2h-1v-2z" fill="#690"/>
</svg>
